X:111
T:Lass of Gowrie. Le4.111, The
M:2/4
L:1/8
Q:1/4=80
C:"sung by Mr Melrose"
B:L.Leadley MS#4 c1850
Z:Village Music Project, 2016 Ruairidh Greig
K:D
A>G|F<A (AB/c/)|d>e d>c|B>A B>d|e>fe (A/G/)|
F<A A(B/c/)|d>eHf >e|d>B d>B|A>F D:|
z/ g/|f>a d>e|f>g a>f|g>b e>f|g>a Hb Ha/>g/|
f>a e>f|deHfr z/B/|A>g g>f|f>ed:|

